source/img/icons/telegram.svg

<svg width="32" height="32" viewBox="0 0 32 32" fill="none" xmlns="http://www.w3.org/2000/svg">
  <path fill-rule="evenodd" clip-rule="evenodd" d="M32 16c0 8.836-7.164 16-16 16S0 24.836 0 16 7.164 0 16 0s16 7.164 16 16zm-15.4267-4.188c-1.556.6467-4.6666 1.9867-9.3306 4.0187-.7574.3013-1.1547.596-1.1907.884-.0613.488.5493.68 1.3787.94.1133.036.2306.072.3506.112.8174.2653 1.916.576 2.4867.588.5187.0106 1.0973-.2027 1.736-.64 4.3573-2.9427 6.6067-4.4294 6.748-4.4614.1-.0226.2387-.052.332.032.0933.0827.084.24.0747.2827-.0614.2573-2.4534 2.4827-3.6934 3.6347-.3866.3586-.66.6133-.716.672a16.3393 16.3393 0 01-.376.372c-.76.7306-1.328 1.28.032 2.176.6534.4306 1.176.7866 1.6974 1.1413.5693.388 1.1373.7747 1.8733 1.2573.1867.1227.3653.2494.54.3734.6627.4733 1.2587.8973 1.9947.8306.4266-.04.8693-.4413 1.0933-1.64.5293-2.8346 1.572-8.9733 1.8133-11.504a2.814 2.814 0 00-.0266-.6293.6746.6746 0 00-.2294-.4333c-.1906-.156-.4866-.1894-.62-.1867-.6013.0107-1.524.332-5.968 2.18z" fill="#fff"/>
</svg>

<svg width="32" height="32" viewBox="0 0 32 32" fill="none" xmlns="http://www.w3.org/2000/svg">
<path fill-rule="evenodd" clip-rule="evenodd" d="M32 16C32 24.836 24.836 32 16 32C7.164 32 0 24.836 0 16C0 7.164 7.164 0 16 0C24.836 0 32 7.164 32 16ZM16.5733 11.812C15.0173 12.4587 11.9067 13.7987 7.24267 15.8307C6.48533 16.132 6.088 16.4267 6.052 16.7147C5.99067 17.2027 6.60133 17.3947 7.43067 17.6547C7.544 17.6907 7.66133 17.7267 7.78133 17.7667C8.59867 18.032 9.69733 18.3427 10.268 18.3547C10.7867 18.3653 11.3653 18.152 12.004 17.7147C16.3613 14.772 18.6107 13.2853 18.752 13.2533C18.852 13.2307 18.9907 13.2013 19.084 13.2853C19.1773 13.368 19.168 13.5253 19.1587 13.568C19.0973 13.8253 16.7053 16.0507 15.4653 17.2027C15.0787 17.5613 14.8053 17.816 14.7493 17.8747C14.624 18.004 14.496 18.128 14.3733 18.2467C13.6133 18.9773 13.0453 19.5267 14.4053 20.4227C15.0587 20.8533 15.5813 21.2093 16.1027 21.564C16.672 21.952 17.24 22.3387 17.976 22.8213C18.1627 22.944 18.3413 23.0707 18.516 23.1947C19.1787 23.668 19.7747 24.092 20.5107 24.0253C20.9373 23.9853 21.38 23.584 21.604 22.3853C22.1333 19.5507 23.176 13.412 23.4173 10.8813C23.432 10.6712 23.4231 10.4601 23.3907 10.252C23.3713 10.0839 23.2894 9.92924 23.1613 9.81867C22.9707 9.66267 22.6747 9.62933 22.5413 9.632C21.94 9.64267 21.0173 9.964 16.5733 11.812V11.812Z" fill="white"/>
</svg>
